img/vantage/2.svg

<svg width="176" height="209" viewBox="0 0 176 209" fill="none" xmlns="http://www.w3.org/2000/svg">
<g filter="url(#filter0_f_421_50067)">
<path d="M52.5344 55.6513C61.4397 49.6331 63.4071 52.2626 67.0806 57.6984L144.928 164.774C148.601 170.209 145.985 175.936 137.637 181.579L109.808 200.385C100.903 206.404 95.1698 206.319 91.4963 200.883L21.1389 88.746C17.4654 83.3103 16.3569 80.1003 24.7056 74.4582L52.5344 55.6513Z" fill="#18174A" fill-opacity="0.3"/>
</g>
<path fill-rule="evenodd" clip-rule="evenodd" d="M150.689 127.229C153.783 131.807 150.924 137.074 142.664 142.656L142.744 142.775C142.489 142.918 142.226 143.059 141.954 143.198L142.182 143.536L114.65 162.142L116.707 165.186L132.707 188.861L160.241 170.253L144.241 146.578L144.013 146.24L144.015 146.239L160.242 170.249L160.243 170.249L162.299 173.292L162.299 173.291C162.544 173.126 162.789 172.961 163.032 172.795L163.034 172.797C163.271 172.636 163.504 172.476 163.733 172.317C165.372 171.19 166.911 170.062 168.001 168.935C168.207 168.744 168.405 168.554 168.596 168.365L168.678 168.487C169.011 168.074 169.298 167.764 169.542 167.499L169.542 167.499C169.938 167.071 170.224 166.761 170.424 166.322L170.413 166.306C170.887 165.674 171.274 165.052 171.573 164.441L171.619 164.54L171.941 163.83L171.881 163.74C172.078 163.229 172.214 162.725 172.29 162.227C172.31 162.174 172.332 162.119 172.358 162.061L172.32 162.004C172.507 160.408 172.073 158.872 171.058 157.37L150.689 127.229ZM114.65 162.144C106.39 167.726 100.613 168.674 97.8706 164.616L97.929 164.702C97.9094 164.674 97.8899 164.646 97.8705 164.617L99.9276 167.661C99.9483 167.692 99.9691 167.722 99.9901 167.752L115.927 191.334C115.942 191.357 115.957 191.379 115.973 191.401L117.985 194.378C120.728 198.437 125.954 197.861 134.765 191.906L132.707 188.863L132.707 188.863L114.65 162.144ZM160.243 170.255L132.709 188.862L134.766 191.906L162.3 173.299L160.243 170.255Z" fill="url(#paint0_linear_421_50067)"/>
<g style="mix-blend-mode:lighten" filter="url(#filter1_f_421_50067)">
<path d="M57.513 17.3207C66.4182 11.3025 68.3856 13.9321 72.0591 19.3678L149.906 126.443C153.58 131.879 150.964 137.606 142.615 143.248L114.786 162.055C105.881 168.073 100.148 167.988 96.4749 162.552L26.1174 50.4154C22.444 44.9797 21.3354 41.7697 29.6841 36.1276L57.513 17.3207Z" fill="url(#paint1_linear_421_50067)" fill-opacity="0.6"/>
</g>
<path d="M57.513 17.3207C66.4182 11.3025 68.3856 13.9321 72.0591 19.3678L149.906 126.443C153.58 131.879 150.964 137.606 142.615 143.248L114.786 162.055C105.881 168.073 100.148 167.988 96.4749 162.552L26.1174 50.4154C22.444 44.9797 21.3354 41.7697 29.6841 36.1276L57.513 17.3207Z" fill="url(#paint2_linear_421_50067)"/>
<defs>
<filter id="filter0_f_421_50067" x="8.96483" y="42.8049" width="146.987" height="171.527" filterUnits="userSpaceOnUse" color-interpolation-filters="sRGB">
<feFlood flood-opacity="0" result="BackgroundImageFix"/>
<feBlend mode="normal" in="SourceGraphic" in2="BackgroundImageFix" result="shape"/>
<feGaussianBlur stdDeviation="4.70069" result="effect1_foregroundBlur_421_50067"/>
</filter>
<filter id="filter1_f_421_50067" x="0.960482" y="-8.50851" width="172.953" height="197.493" filterUnits="userSpaceOnUse" color-interpolation-filters="sRGB">
<feFlood flood-opacity="0" result="BackgroundImageFix"/>
<feBlend mode="normal" in="SourceGraphic" in2="BackgroundImageFix" result="shape"/>
<feGaussianBlur stdDeviation="11.1921" result="effect1_foregroundBlur_421_50067"/>
</filter>
<linearGradient id="paint0_linear_421_50067" x1="118.207" y1="203.097" x2="181.448" y2="160.358" gradientUnits="userSpaceOnUse">
<stop stop-color="#CA3038"/>
<stop offset="0.809203" stop-color="#FCB6A5"/>
<stop offset="0.9875" stop-color="#F86157"/>
</linearGradient>
<linearGradient id="paint1_linear_421_50067" x1="70.4114" y1="-2.55008" x2="104.714" y2="187.123" gradientUnits="userSpaceOnUse">
<stop stop-color="#FF0075"/>
<stop offset="1" stop-color="#DC592D"/>
</linearGradient>
<linearGradient id="paint2_linear_421_50067" x1="77.2903" y1="-29.5068" x2="89.1059" y2="184.658" gradientUnits="userSpaceOnUse">
<stop offset="0.0291665" stop-color="#FBB2A1"/>
<stop offset="0.636094" stop-color="#DC592D"/>
<stop offset="0.977083" stop-color="#BD4145"/>
</linearGradient>
</defs>
</svg>

<svg width="176" height="209" fill="none" xmlns="http://www.w3.org/2000/svg"><g filter="url(#a)"><path d="M52.534 55.651c8.906-6.018 10.873-3.388 14.547 2.047l77.847 107.076c3.673 5.435 1.057 11.162-7.291 16.805l-27.829 18.806c-8.905 6.019-14.638 5.934-18.312.498L21.14 88.746c-3.674-5.436-4.782-8.646 3.567-14.288l27.828-18.807Z" fill="#18174A" fill-opacity=".3"/></g><path fill-rule="evenodd" clip-rule="evenodd" d="M150.689 127.229c3.094 4.578.235 9.845-8.025 15.427l.08.119c-.255.143-.518.284-.79.423l.228.338-27.532 18.606 2.057 3.044 16 23.675 27.534-18.608-16-23.675-.228-.338.002-.001 16.227 24.01h.001l2.056 3.043v-.001c.245-.165.49-.33.733-.496l.002.002c.237-.161.47-.321.699-.48 1.639-1.127 3.178-2.255 4.268-3.382.206-.191.404-.381.595-.57l.082.122c.333-.413.62-.723.864-.988.396-.428.682-.738.882-1.177l-.011-.016c.474-.632.861-1.254 1.16-1.865l.046.099.322-.71-.06-.09a7.238 7.238 0 0 0 .409-1.513c.02-.053.042-.108.068-.166l-.038-.057c.187-1.596-.247-3.132-1.262-4.634l-20.369-30.141Zm-36.039 34.915c-8.26 5.582-14.037 6.53-16.78 2.472l.059.086a4.85 4.85 0 0 1-.058-.085l2.057 3.044.062.091 15.937 23.582.046.067 2.012 2.977c2.743 4.059 7.969 3.483 16.78-2.472l-2.058-3.043-18.057-26.719Zm45.593 8.111-27.534 18.607 2.057 3.044 27.534-18.607-2.057-3.044Z" fill="url(#b)"/><g style="mix-blend-mode:lighten" filter="url(#c)"><path d="M57.513 17.32c8.905-6.018 10.873-3.388 14.546 2.048l77.847 107.075c3.674 5.436 1.058 11.163-7.291 16.805l-27.829 18.807c-8.905 6.018-14.638 5.933-18.311.497L26.117 50.415c-3.673-5.435-4.782-8.645 3.567-14.287L57.513 17.32Z" fill="url(#d)" fill-opacity=".6"/></g><path d="M57.513 17.32c8.905-6.018 10.873-3.388 14.546 2.048l77.847 107.075c3.674 5.436 1.058 11.163-7.291 16.805l-27.829 18.807c-8.905 6.018-14.638 5.933-18.311.497L26.117 50.415c-3.673-5.435-4.782-8.645 3.567-14.287L57.513 17.32Z" fill="url(#e)"/><defs><linearGradient id="b" x1="118.207" y1="203.097" x2="181.448" y2="160.358" gradientUnits="userSpaceOnUse"><stop stop-color="#CA3038"/><stop offset=".809" stop-color="#FCB6A5"/><stop offset=".988" stop-color="#F86157"/></linearGradient><linearGradient id="d" x1="70.411" y1="-2.55" x2="104.714" y2="187.123" gradientUnits="userSpaceOnUse"><stop stop-color="#FF0075"/><stop offset="1" stop-color="#DC592D"/></linearGradient><linearGradient id="e" x1="77.29" y1="-29.507" x2="89.106" y2="184.658" gradientUnits="userSpaceOnUse"><stop offset=".029" stop-color="#FBB2A1"/><stop offset=".636" stop-color="#DC592D"/><stop offset=".977" stop-color="#BD4145"/></linearGradient><filter id="a" x="8.965" y="42.805" width="146.987" height="171.527" filterUnits="userSpaceOnUse" color-interpolation-filters="sRGB"><feFlood flood-opacity="0" result="BackgroundImageFix"/><feBlend in="SourceGraphic" in2="BackgroundImageFix" result="shape"/><feGaussianBlur stdDeviation="4.701" result="effect1_foregroundBlur_421_50067"/></filter><filter id="c" x=".96" y="-8.509" width="172.953" height="197.493" filterUnits="userSpaceOnUse" color-interpolation-filters="sRGB"><feFlood flood-opacity="0" result="BackgroundImageFix"/><feBlend in="SourceGraphic" in2="BackgroundImageFix" result="shape"/><feGaussianBlur stdDeviation="11.192" result="effect1_foregroundBlur_421_50067"/></filter></defs></svg>
